X:120
T:Paddy Taylor's No. 2
Z: id:dc-jig-100
M:6/8
L:1/8
K:D Major
B|ABA g3|a3 efg|f3 ged|cAG EFG|!
ABA g3|a3 efg|f3 gec|edc d2:|!
e|fed edc|ded cAG|A3 DFA|fed ecA|!
fed edc|ded cde|fed cAG|Adc d2:|!

